X:579
%%etbk:tnset id:312,pos:1,rep:3x,ant:
%%etbk:pldat 2015-01-08T17:57,2014-10-16T17:59,2014-10-15T17:57,2014-04-24T18:29,2014-04-23T16:26,2014-04-22T19:21,2014-04-21T16:11,2014-04-18T11:08,2014-04-16T10:09
T: Lanigan's Ball (song)
Z: Piano Box Version by Martin Fleischmann
H: Created 2014-04-14 /  Last Modified 2014-04-21
M: 6/8
L: 1/8
R: song
K:Bmin
P:A
|: "bm"!1!B,!2!B,!1!B, !2!D2!3!E | !4!FFE !4!F2!5!A | "A"!1!A,A,A, !2!C2!5!F | !4!E!2!C!1!A, A,3 |
"bm/G (Gmaj7)"!1!B,B,B, !2!D2!3!E | !2!FFE F2A | "f#m"!5!BF!2!F !2!F2!1!E | "bm"!4!F!2!D!1!B, B,3:|
P:B
|: "bm"!2!B2c !4!d2B | "A"!3!c2c !3!cBA | "bm/G (Gmaj7)"!2!B2c !4!dBB| "f#m"!3!c!2!A!1!F !1!F3 |
"bm"!2!B2c !4!d2B | "A"!3!c2c !3!cB!1!A |"f#m" !5!BFF !2!F2E | "bm"!4!F!2!D!1!B, B,3 :|
P:C
|: "bm"!1!B,2B, !2!D3 | !4!F2F FED | "A"!1!A,2A, !2!C3 | !4!E2E EDC |
 "bm/G (Gmaj7)"!1!B,2B, !2!D3 | !4!F2!2!F FED | "f#m"!5!BF!2!F !2!F2E | "bm"!4!F!2!D!1!B, B,3:|


